public/cards/4-D.svg

<?xml version="1.0" encoding="UTF-8"?>
<svg width="360px" height="540px" viewBox="0 0 360 540" version="1.1" xmlns="http://www.w3.org/2000/svg" xmlns:xlink="http://www.w3.org/1999/xlink">
    <!-- Generator: Sketch 55.2 (78181) - https://sketchapp.com -->
    <title>4-D</title>
    <desc>Created with Sketch.</desc>
    <g id="Page-1" stroke="none" stroke-width="1" fill="none" fill-rule="evenodd">
        <g id="English_pattern_playing_cards_deck" transform="translate(-1170.000000, -1141.000000)" fill-rule="nonzero">
            <g id="4-D" transform="translate(1170.000000, 1140.637820)">
                <rect id="rect6472-33" stroke="#000000" stroke-width="0.99999976" fill="#FFFFFF" x="0.5" y="0.86218" width="359" height="539" rx="29.944447"></rect>
                <polygon id="rect3980-7-6-2-9-9" fill="#FF5555" points="30 30.36208 20 65.36209 20 70.36208 32 70.36208 32 80.36208 37 80.36208 37 70.36208 40 70.36208 40 65.36209 37 65.36209 37 50.3621 32 50.3621 32 65.36209 25.2 65.36209 35.19999 30.36208"></polygon>
                <polygon id="rect3980-7-6-2-9-9-8" fill="#FF5555" points="330 510.3622 340 475.36216 340 470.36216 328 470.36216 328 460.36216 323 460.36216 323 470.36216 320 470.36216 320 475.36216 323 475.36216 323 490.3622 328 490.3622 328 475.36216 334.8 475.36216 324.80001 510.3622"></polygon>
                <path d="M90,45.36218 C90,45.36218 96,60.36218 103,70.36218 C110,80.36218 120,90.36218 120,90.36218 C120,90.36218 110,100.36218 103,110.36218 C96,120.36218 90,135.36218 90,135.36218 C90,135.36218 84,120.36218 77,110.36218 C70,100.36218 60,90.36218 60,90.36218 C60,90.36218 70,80.36218 77,70.36218 C84,60.36218 90,45.36218 90,45.36218" id="path3204-24-55" fill="#FF5555"></path>
                <path d="M270,45.36218 C270,45.36218 276,60.36218 283,70.36218 C290,80.36218 300,90.36218 300,90.36218 C300,90.36218 290,100.36218 283,110.36218 C276,120.36218 270,135.36218 270,135.36218 C270,135.36218 264,120.36218 257,110.36218 C250,100.36218 240,90.36218 240,90.36218 C240,90.36218 250,80.36218 257,70.36218 C264,60.36218 270,45.36218 270,45.36218" id="path3204-24-1-32" fill="#FF5555"></path>
                <path d="M90,405.36218 C90,405.36218 96,420.36218 103,430.36218 C110,440.36218 120,450.36218 120,450.36218 C120,450.36218 110,460.36218 103,470.36218 C96,480.36218 90,495.3622 90,495.3622 C90,495.3622 84,480.36218 77,470.36218 C70,460.36218 60,450.36218 60,450.36218 C60,450.36218 70,440.36218 77,430.36218 C84,420.36218 90,405.36218 90,405.36218" id="path3204-24-7-8" fill="#FF5555"></path>
                <path d="M270,405.36218 C270,405.36218 276,420.36218 283,430.36218 C290,440.36218 300,450.36218 300,450.36218 C300,450.36218 290,460.36218 283,470.36218 C276,480.36218 270,495.3622 270,495.3622 C270,495.3622 264,480.36218 257,470.36218 C250,460.36218 240,450.36218 240,450.36218 C240,450.36218 250,440.36218 257,430.36218 C264,420.36218 270,405.36218 270,405.36218" id="path3204-24-4-25" fill="#FF5555"></path>
                <path d="M30,90.36218 C30,90.36218 33,97.86218 36.5,102.86218 C40,107.86218 45,112.86218 45,112.86218 C45,112.86218 40,117.86218 36.5,122.86218 C33,127.86218 30,135.36218 30,135.36218 C30,135.36218 27,127.86218 23.5,122.86218 C20,117.86218 15,112.86218 15,112.86218 C15,112.86218 20,107.86218 23.5,102.86218 C27,97.86218 30,90.36218 30,90.36218" id="path3204-24-1-0-3" fill="#FF5555"></path>
                <path d="M330,405.36218 C330,405.36218 333,412.86218 336.5,417.86218 C340,422.86218 345,427.86218 345,427.86218 C345,427.86218 340,432.86218 336.5,437.86218 C333,442.86218 330,450.36218 330,450.36218 C330,450.36218 327,442.86218 323.5,437.86218 C320,432.86218 315,427.86218 315,427.86218 C315,427.86218 320,422.86218 323.5,417.86218 C327,412.86218 330,405.36218 330,405.36218" id="path3204-24-1-9-6" fill="#FF5555"></path>
            </g>
        </g>
    </g>
</svg>

<svg width="360" height="540" xmlns="http://www.w3.org/2000/svg"><g transform="translate(0 -.362)" fill-rule="nonzero" fill="none"><rect stroke="#000" fill="#FFF" x=".5" y=".862" width="359" height="539" rx="29.944"/><path fill="#F55" d="M30 30.362l-10 35v5h12v10h5v-10h3v-5h-3v-15h-5v15h-6.8l10-35zM330 510.362l10-35v-5h-12v-10h-5v10h-3v5h3v15h5v-15h6.8l-10 35zM90 45.362s6 15 13 25 17 20 17 20-10 10-17 20-13 25-13 25-6-15-13-25-17-20-17-20 10-10 17-20 13-25 13-25M270 45.362s6 15 13 25 17 20 17 20-10 10-17 20-13 25-13 25-6-15-13-25-17-20-17-20 10-10 17-20 13-25 13-25M90 405.362s6 15 13 25 17 20 17 20-10 10-17 20-13 25-13 25-6-15-13-25-17-20-17-20 10-10 17-20 13-25 13-25M270 405.362s6 15 13 25 17 20 17 20-10 10-17 20-13 25-13 25-6-15-13-25-17-20-17-20 10-10 17-20 13-25 13-25M30 90.362s3 7.5 6.5 12.5 8.5 10 8.5 10-5 5-8.5 10-6.5 12.5-6.5 12.5-3-7.5-6.5-12.5-8.5-10-8.5-10 5-5 8.5-10 6.5-12.5 6.5-12.5M330 405.362s3 7.5 6.5 12.5 8.5 10 8.5 10-5 5-8.5 10-6.5 12.5-6.5 12.5-3-7.5-6.5-12.5-8.5-10-8.5-10 5-5 8.5-10 6.5-12.5 6.5-12.5"/></g></svg>
